!!!COM: Bach, Johann Sebastian
!!!OTL@@DE: 40. Ach Gott und Herr, wie gross und schwer
!!!OTL@EN: Ah, God and Lord, how great and heavy my sins
!!!SCA: BWV 240
**harm	**root	**kern	**kern	**kern	**kern
*staff2	*	*staff2	*staff2	*staff1	*staff1
*Iorgan	*Iorgan	*Iorgan	*Iorgan	*Iorgan	*Iorgan
!	!	!bass	!tenor	!alto	!sprno
*	*	*clefF4	*clefF4	*clefG2	*clefG2
*k[f#c#g#d#a#]	*k[f#c#g#d#a#]	*k[f#c#g#d#a#]	*k[f#c#g#d#a#]	*k[f#c#g#d#a#]	*k[f#c#g#d#a#]
*B:	*B:	*B:	*B:	*B:	*B:
*met(c)	*met(c)	*met(c)	*met(c)	*met(c)	*met(c)
*M4/4	*M4/4	*M4/4	*M4/4	*M4/4	*M4/4
*MM60	*MM60	*MM60	*MM60	*MM60	*MM60
I	4CC	4BB	4d#	4f#	4b
=1	=1	=1	=1	=1	=1
V	4GG	4F#	[4c#	4f#	4a#
V7/V	4DD	4C#	8c#L]	4e#	4g#
.	.	.	8BJ	.	.
V;	4GG;	4FF#;	4A#;	4c#;	4f#;
I	4CC	4BB	8BL	8d#L	4f#
.	.	.	8AJ	8c#J	.
=2	=2	=2	=2	=2	=2
IV	4FF	8EL	8G#L	4B	4g#
.	.	8D#J	8F#J	.	.
viiob	4BB	4C#	4E	4c#	4a#
I;	4CC;	4BB;	4F#;	4d#;	4b;
V	4GG	4FF#	4A#	[4f#	4cc#
=3	=3	=3	=3	=3	=3
viiob/V	4FF#	4GG#	4B	8f#L]	4b
.	.	.	.	8e#J	.
Vb	4GG	8AA#L	4c#	4f#	4a#
.	.	8BBJ	.	.	.
V/V	4DD	4C#	4c#	4e#	4g#
V	4GG	4F#	4c#	[4f#	8a#L
.	.	.	.	.	8bJ
=4	=4	=4	=4	=4	=4
vi7b	4AA	4BB	4d#	4f#]	2g#
V7/V	4DD	4C#	8c#L	4e#	.
.	.	.	8BJ	.	.
V;	4GG;	4FF#;	4A#;	4c#;	4f#;
Ib	4CC	4D#	4B	4f#	4b
=5	=5	=5	=5	=5	=5
!!linebreak: 2
viiob	4BB	4C#	4c#	4e	4a#
I	4CC	4BB	4d#	4f#	4b
V;	4GG;	4F#;	4A#;	4f#;	4cc#;
V	4GG	4F#	4A#	4f#	4cc#
=6	=6	=6	=6	=6	=6
I	4CC	8BL	4B	4f#	4dd#
.	.	8A#J	.	.	.
V7c/V	4DD	4G#	4B	4e#	8cc#L
.	.	.	.	.	8bJ
V;	4GG;	4F#;	4A#;	4f#;	4cc#;
Ib	4CC	4D#	4B	4f#	4f#
=7	=7	=7	=7	=7	=7
V7b/V	4DD	4E#	4B	4c#	4g#
viio/VI	4GG#	4F##	4A#	4c#	4a#
vi	4AA	4G#	8d#L	4.B	8bL
.	.	.	8e	.	8cc#
Ic	8CC	8F#L	8f#	.	8dd#
IV	8FF	8EJ	8BJ	8g#	8eeJ
=8	=8	=8	=8	=8	=8
Ic	4CC	4F#	4B	4.f#	2cc#
V7	4GG	4FF#	4A#	.	.
.	.	.	.	8e	.
I;	4CC;	4BB;	4F#;	4d#;	4b;
==	==	==	==	==	==
*-	*-	*-	*-	*-	*-
!!!ENC: Craig Stuart Sapp
!!!END: 2004/12/06/
!!!ONB: Harmony and Root analysis done manually by Craig Sapp
!!chor2scor: -l 2 -s 0.6 -o %b.pmx
